app/dist/common/images/huatu-cendes-co.svg

<svg height="18" viewBox="0 0 18 18" width="18" xmlns="http://www.w3.org/2000/svg"><path d="m0 0h18v18h-18z" fill="#f0f3fa"/><path d="m6.81 13h2.19v-1.42c-.69.53-1.42 1-2.19 1.42zm3.19 0h1v-3.28c-.32.35-.65.69-1 1.01zm2 0h1v-6.05c-.3.54-.64 1.06-1 1.55zm-7-.01a14.83 14.83 0 0 0 8-7.78v-.21h-.74a14.07 14.07 0 0 1 -7.26 7.16v.84zm6.43-7.99h-.85a12.56 12.56 0 0 1 -5.58 5.5v.84c2.81-1.3 5.1-3.55 6.43-6.34zm-1.73 0h-4.7v4.62a11.79 11.79 0 0 0 4.7-4.62z" fill="#eb5b31"/></svg>

<!-- by TradingView --><svg width="18" height="18" viewBox="0 0 18 18" xmlns="http://www.w3.org/2000/svg"><path fill="#F0F3FA" d="M0 0h18v18H0z"/><path d="M6.81 13H9v-1.42c-.69.53-1.42 1-2.19 1.42ZM10 13h1V9.72c-.32.35-.65.69-1 1.01V13Zm2 0h1V6.95c-.3.54-.64 1.06-1 1.55V13Zm-7-.01a14.83 14.83 0 0 0 8-7.78V5h-.74A14.07 14.07 0 0 1 5 12.16V13ZM11.43 5h-.85A12.56 12.56 0 0 1 5 10.5v.84c2.81-1.3 5.1-3.55 6.43-6.34ZM9.7 5H5v4.62A11.79 11.79 0 0 0 9.7 5Z" fill="#EB5B31"/></svg>
